lib/brands/icons/linkedin.svg

<svg xmlns="http://www.w3.org/2000/svg" fill="none" aria-hidden="true" viewBox="0 0 48 48"><g id="linkedin-Icon"><path id="Shape" fill="#2867B2" d="M15.163 40H8.52858V18.6352H15.163V40ZM11.8422 15.7209C9.72075 15.7209 8 13.9637 8 11.8422C8 9.72022 9.72022 8 11.8422 8C13.9642 8 15.6845 9.72022 15.6845 11.8422C15.6845 13.9637 13.963 15.7209 11.8422 15.7209ZM39.9936 40H33.3734V29.5998C33.3734 27.1211 33.3234 23.9425 29.9241 23.9425C26.4747 23.9425 25.9461 26.6354 25.9461 29.4212V40H19.3188V18.6352H25.6818V21.5496H25.7747C26.6604 19.871 28.824 18.0995 32.052 18.0995C38.7664 18.0995 40.0007 22.521 40.0007 28.264V40H39.9936Z"/></g></svg>

<svg xmlns="http://www.w3.org/2000/svg" fill="none" aria-hidden="true" viewBox="0 0 48 48"><path fill="#2867B2" d="M15.163 40H8.529V18.635h6.634V40Zm-3.32-24.28C9.72 15.72 8 13.965 8 11.843a3.842 3.842 0 0 1 7.684 0c0 2.122-1.721 3.879-3.842 3.879ZM39.992 40h-6.62V29.6c0-2.479-.05-5.658-3.449-5.658-3.45 0-3.978 2.693-3.978 5.48V40H19.32V18.635h6.363v2.915h.093c.885-1.679 3.049-3.45 6.277-3.45 6.714 0 7.949 4.421 7.949 10.164V40h-.007Z"/></svg>
